img/icons/update.svg

<svg width="20" height="18" viewBox="0 0 20 18" fill="none" xmlns="http://www.w3.org/2000/svg">
<path d="M7 17V8H2.59961C2.03956 8 1.75981 8 1.5459 8.10899C1.35774 8.20487 1.20487 8.35786 1.10899 8.54602C1 8.75993 1 9.03992 1 9.59998V17H7ZM7 17H13M7 17V2.59998C7 2.03992 7 1.75993 7.10899 1.54602C7.20487 1.35786 7.35774 1.20487 7.5459 1.10899C7.75981 1 8.03956 1 8.59961 1H11.3996C11.9597 1 12.2405 1 12.4544 1.10899C12.6425 1.20487 12.7948 1.35786 12.8906 1.54602C12.9996 1.75993 13 2.03992 13 2.59998V17M13 17L19 17V6.59998C19 6.03992 18.9996 5.75993 18.8906 5.54602C18.7948 5.35786 18.6425 5.20487 18.4544 5.10899C18.2405 5 17.9601 5 17.4 5H13V17Z" stroke="#8C8D92" stroke-width="2" stroke-linecap="round" stroke-linejoin="round"/>
</svg>

<svg width="20" height="18" fill="none" xmlns="http://www.w3.org/2000/svg"><path d="M7 17V8H2.6c-.56 0-.84 0-1.054.109a1 1 0 0 0-.437.437C1 8.76 1 9.04 1 9.6V17h6Zm0 0h6m-6 0V2.6c0-.56 0-.84.109-1.054a1 1 0 0 1 .437-.437C7.76 1 8.04 1 8.6 1h2.8c.56 0 .84 0 1.054.109.188.096.34.249.437.437C13 1.76 13 2.04 13 2.6V17m0 0h6V6.6c0-.56 0-.84-.11-1.054a.998.998 0 0 0-.436-.437C18.241 5 17.96 5 17.4 5H13v12Z" stroke="#8C8D92" stroke-width="2" stroke-linecap="round" stroke-linejoin="round"/></svg>
